X: 7867
T: Compliments To Jimmy Keane
R: jig
M: 6/8
K: Gmajor
|:GDE Gce|edG AGE|GDE Gce|dgG AGE|
GDE Ggg|gag edg|edg edg|egG EDD:|
|:DEG A2D|DEG Acd|dGG c2G|GcG EDC|
DEG A2D|DEG Acd|dGG cEE|1 EGE D3:|2 EGE D2 E||

